X:1
T:If We Brightly Shine
T:Daniel Brink Towner
T:If We Brightly Shine
T:Public Domain
T:Public Domain
C:Daniel Brink Towner
Z:Public Domain
%%score 1 ( 2 3 )
L:1/8
M:4/4
K:C
V:1 treble 
V:2 bass 
V:3 bass 
V:1
 [CE]>[DF] | [EG]2 [Ec]2 [Ec]2 [EG]>[EG] | [FA]2 [Fd]2 [Fd]2 [Fc][Fc] | [FB]2 [FB]2 [FA]2 [FB]2 | %4
w: 1.~If we|bright- ly shine, if we|sweet- ly smile, We will|help to short- en|
w: 2.~If we|do kind deeds in a|kind- ly way, Friends will|glad- ly greet us|
w: 3.~So we’ll|sweet- ly smile and we’ll|bright- ly shine, And the|cross of Je- sus|
 [Ec]2 [FA]2 [EG]2 [CE]>[DF] | [EG]2 [Ec]2 [Ec]2 [EG]2 | [FA]2 [Fd]2 [Fd]2 [Fc][Fc] | %7
w: each long mile; If we|speak the words of|love and cheer Hap- py|
w: day by day, And our|pre- sence, then, will|wel- come be, All be-|
w: be our sign; For we|want this world to|bet- ter be By our|
 [FB]2 [FG]2 [FA]2 [FB]2 | [Ec]2 [Fc]2 [Ec]2 ||"^Refrain" [DB]>[Ec] | [Fd]2 [FB]2 [FG]2 [FA]>[FB] | %11
w: days will make a|hap- py year.|||
w: cause our hap- pi-|ness they see.|||
w: lov- ing ser- vice,|glad and free.|||
 [Ec]2 [CE]2 [EG]2 [DB]>[Ec] | [Fd]2 [FB]2 [FG]2 [FA]>[FB] | [Ec]2 [Fd]2 [Ge]2 [CE]>[DF] | %14
w: |||
w: |||
w: |||
 [EG]2 [Ec]2 [Ec]2 [EG]2 | [FA]2 [Fd]2 [Fd]2 [Fc][Fc] | [FB]2 [FG]2 [FA]2 [FB]2 | %17
w: |||
w: |||
w: |||
 [Ec]2 [Fc]2 [Ec]2 |] %18
w: |
w: |
w: |
V:2
 [C,G,]>[C,G,] | [C,C]2 [C,G,]2 [C,G,]2 [C,C]>[C,C] | [F,C]2 [F,A,]2 [F,A,]2 [F,A,][F,A,] | %3
w: ~ ~|~ ~ ~ ~ ~|~ ~ ~ ~ ~|
 G,2 G,2 [G,B,]2 [G,D]2 | [C,C]2 [C,C]2 [C,C]2 [C,G,]>[C,G,] | [C,C]2 [C,G,]2 [C,G,]2 [C,C]2 | %6
w: ~ ~ ~ ~|~ ~ ~ ~ ~|~ ~ ~ ~|
 [F,C]2 [F,A,]2 [F,A,]2 [F,A,][F,A,] | G,2 [G,B,]2 [G,D]2 G,2 | [C,G,]2 [C,A,]2 [C,G,]2 || G,>G, | %10
w: ~ ~ ~ ~ ~|~ ~ ~ ~|we bright- ly|shine, if|
 [G,B,]2 [G,D]2 [G,D]2 [G,D]>[G,D] | [C,C]2 [C,G,]2 [C,C]2 [G,D]>[G,C] | %12
w: ly smile, We will help|to shor- ten the long,|
 [G,B,]2 [G,D]2 [G,D]2 [G,D]>[G,D] | [C,C]2 [C,C]2 [C,C]2 [C,G,]>[C,G,] | %14
w: long mile; It will help|to make our lives di-|
 [C,C]2 [C,G,]2 [C,G,]2 [C,C]2 | [F,C]2 [F,A,]2 [F,A,]2 [F,A,][F,A,] | G,2 [G,B,]2 [G,D]2 G,2 | %17
w: vine, If, with Je-|sus’ love we shine, shine,|shine. * * *|
 [C,G,]2 [C,A,]2 [C,G,]2 |] %18
w: |
V:3
 x2 | x8 | x8 | G,2 G,2 x4 | x8 | x8 | x8 | G,2 x2 G,2 x2 | x6 || G,>G, | x8 | x8 | x8 | x8 | x8 | %15
w: |||~ ~||||~ If||we sweet-||||||
 x8 | G,2 x2 G,2 x2 | x6 |] %18
w: |||

